assets/images/colab-logo.svg

<svg height="16" viewBox="0 0 26 16" width="26" xmlns="http://www.w3.org/2000/svg" xmlns:xlink="http://www.w3.org/1999/xlink"><mask id="a" fill="#fff"><path d="m.1196097 0h14.9699248v15.0833196h-14.9699248z" fill="#fff" fill-rule="evenodd"/></mask><mask id="b" fill="#fff"><path d="m0 0h11.5004406v15.0833196h-11.5004406z" fill="#fff" fill-rule="evenodd"/></mask><g fill="#9b9b9b" fill-rule="evenodd" opacity=".5"><path d="m7.60457211 10.9530916c-1.8698797 0-3.38578873-1.52739319-3.38578873-3.41143865 0-1.88404545 1.51590903-3.41143863 3.38578873-3.41143863 1.86987969 0 3.38578869 1.52739318 3.38578869 3.41143863 0 1.88404546-1.515909 3.41143865-3.38578869 3.41143865m0-10.95310531c-4.1338767 0-7.48496241 3.37647273-7.48496241 7.54166666 0 4.16519395 3.35108571 7.54166665 7.48496241 7.54166665 4.13387669 0 7.48496239-3.3764727 7.48496239-7.54166665 0-4.16519393-3.3510857-7.54166666-7.48496239-7.54166666" mask="url(#a)" transform="translate(10.751128)"/><path d="m7.48496241 10.9530916c-1.8698797 0-3.38578873-1.52739319-3.38578873-3.41143865 0-1.88404545 1.51590903-3.41143863 3.38578873-3.41143863.7323015 0 1.40948646.23502576 1.96350977.63308863.41466692-1.35078106 1.12396922-2.57061136 2.05196842-3.58475984-1.1605774-.74511667-2.53740225-1.17855682-4.01547819-1.17855682-4.1338767 0-7.48496241 3.37647273-7.48496241 7.54166666 0 4.16519395 3.35108571 7.54166665 7.48496241 7.54166665 1.47807594 0 2.85490079-.4334401 4.01547819-1.1785568-.9279992-1.0141485-1.6373015-2.2339788-2.05196842-3.5847598-.55402331.3980628-1.23120827.6330886-1.96350977.6330886" mask="url(#b)"/></g></svg>

<svg width="26px" height="16px" viewBox="0 0 26 16" version="1.1" xmlns="http://www.w3.org/2000/svg" xmlns:xlink="http://www.w3.org/1999/xlink">
    <!-- Generator: Sketch 51.2 (57519) - http://www.bohemiancoding.com/sketch -->
    <desc>Created with Sketch.</desc>
    <defs>
        <polygon id="path-1" points="0.119609699 0 15.0895345 0 15.0895345 15.0833196 0.119609699 15.0833196"></polygon>
        <polygon id="path-3" points="0 0 11.5004406 0 11.5004406 15.0833196 0 15.0833196"></polygon>
    </defs>
    <g id="desktop" stroke="none" stroke-width="1" fill="none" fill-rule="evenodd" opacity="0.5">
        <g id="01_Homepage" transform="translate(-980.000000, -4085.000000)">
            <g id="GetStarted" transform="translate(0.000000, 3522.000000)">
                <g id="Via-CLoud" transform="translate(953.000000, 71.000000)">
                    <g id="Button-Copy" transform="translate(0.000000, 468.000000)">
                        <g id="Cloud_CoLab" transform="translate(27.000000, 24.000000)">
                            <g id="Page-1">
                                <g id="Group-3" transform="translate(10.751128, 0.000000)">
                                    <mask id="mask-2" fill="white">
                                        <use xlink:href="#path-1"></use>
                                    </mask>
                                    <g id="Clip-2"></g>
                                    <path d="M7.60457211,10.9530916 C5.73469241,10.9530916 4.21878338,9.42569841 4.21878338,7.54165295 C4.21878338,5.6576075 5.73469241,4.13021432 7.60457211,4.13021432 C9.4744518,4.13021432 10.9903608,5.6576075 10.9903608,7.54165295 C10.9903608,9.42569841 9.4744518,10.9530916 7.60457211,10.9530916 M7.60457211,-1.37121215e-05 C3.47069541,-1.37121215e-05 0.119609699,3.37645902 0.119609699,7.54165295 C0.119609699,11.7068469 3.47069541,15.0833196 7.60457211,15.0833196 C11.7384488,15.0833196 15.0895345,11.7068469 15.0895345,7.54165295 C15.0895345,3.37645902 11.7384488,-1.37121215e-05 7.60457211,-1.37121215e-05" id="Fill-1" fill="#9B9B9B" mask="url(#mask-2)"></path>
                                </g>
                                <g id="Group-6">
                                    <mask id="mask-4" fill="white">
                                        <use xlink:href="#path-3"></use>
                                    </mask>
                                    <g id="Clip-5"></g>
                                    <path d="M7.48496241,10.9530916 C5.61508271,10.9530916 4.09917368,9.42569841 4.09917368,7.54165295 C4.09917368,5.6576075 5.61508271,4.13021432 7.48496241,4.13021432 C8.21726391,4.13021432 8.89444887,4.36524008 9.44847218,4.76330295 C9.8631391,3.41252189 10.5724414,2.19269159 11.5004406,1.17854311 C10.3398632,0.433426439 8.96303835,-1.37121215e-05 7.48496241,-1.37121215e-05 C3.35108571,-1.37121215e-05 0,3.37645902 0,7.54165295 C0,11.7068469 3.35108571,15.0833196 7.48496241,15.0833196 C8.96303835,15.0833196 10.3398632,14.6498795 11.5004406,13.9047628 C10.5724414,12.8906143 9.8631391,11.670784 9.44847218,10.320003 C8.89444887,10.7180658 8.21726391,10.9530916 7.48496241,10.9530916" id="Fill-4" fill="#9B9B9B" mask="url(#mask-4)"></path>
                                </g>
                            </g>
                        </g>
                    </g>
                </g>
            </g>
        </g>
    </g>
</svg>
